Flat-Remix-Dark/apps/scalable/distributor-logo-ubuntu.svg

<svg xmlns="http://www.w3.org/2000/svg" xmlns:xlink="http://www.w3.org/1999/xlink" width="384pt" height="384pt" version="1.1" viewBox="0 0 384 384">
 <defs>
  <filter id="alpha" width="100%" height="100%" x="0%" y="0%" filterUnits="objectBoundingBox">
   <feColorMatrix in="SourceGraphic" type="matrix" values="0 0 0 0 1 0 0 0 0 1 0 0 0 0 1 0 0 0 1 0"/>
  </filter>
  <mask id="mask0">
   <g filter="url(#alpha)">
    <rect width="384" height="384" x="0" y="0" style="fill:rgb(0%,0%,0%);fill-opacity:0.2"/>
   </g>
  </mask>
  <clipPath id="clip1">
   <rect width="384" height="384" x="0" y="0"/>
  </clipPath>
  <g id="surface5" clip-path="url(#clip1)">
   <path style="fill:rgb(0%,0%,0%)" d="M 359.746094 190.96875 C 357.0625 281.707031 282.78125 353.902344 192 354 C 101.996094 353.9375 28.03125 282.957031 24.265625 193.03125 C 24.152344 194.6875 24.0625 196.34375 24 198 C 24 290.785156 99.214844 366 192 366 C 284.785156 366 360 290.785156 360 198 C 359.964844 195.65625 359.882812 193.308594 359.746094 190.96875 Z M 359.746094 190.96875"/>
  </g>
  <mask id="mask1">
   <g filter="url(#alpha)">
    <rect width="384" height="384" x="0" y="0" style="fill:rgb(0%,0%,0%);fill-opacity:0.2"/>
   </g>
  </mask>
  <clipPath id="clip2">
   <rect width="384" height="384" x="0" y="0"/>
  </clipPath>
  <g id="surface8" clip-path="url(#clip2)">
   <path style="fill:rgb(0%,0%,0%)" d="M 287.160156 186 C 284.03125 161.511719 271.589844 139.167969 252.421875 123.613281 C 248.519531 125.0625 244.378906 126 240 126 C 224.902344 126 211.921875 116.472656 206.605469 103.171875 C 201.773438 102.410156 196.890625 102.019531 192 102 C 179.207031 102 166.542969 104.558594 154.753906 109.523438 L 173.011719 141.164062 C 179.125 139.09375 185.535156 138.023438 191.992188 137.996094 C 220.484375 138.023438 245.03125 158.082031 250.726562 185.996094 L 287.152344 185.996094 Z M 287.136719 210 L 250.785156 210 C 245.082031 237.933594 220.511719 257.996094 192.003906 258 C 185.546875 257.980469 179.136719 256.921875 173.019531 254.859375 L 154.808594 286.40625 C 166.574219 291.386719 179.21875 293.96875 191.996094 294.003906 C 196.90625 293.957031 201.804688 293.535156 206.648438 292.742188 C 211.976562 279.496094 224.9375 270.003906 239.996094 270.003906 C 244.390625 270.003906 248.558594 270.921875 252.464844 272.394531 C 271.609375 256.824219 284.023438 234.484375 287.132812 210.003906 Z M 264 90 C 264 76.746094 253.253906 66 240 66 C 226.746094 66 216 76.746094 216 90 C 216 103.253906 226.746094 114 240 114 C 253.253906 114 264 103.253906 264 90 Z M 264 306 C 264 292.746094 253.253906 282 240 282 C 226.746094 282 216 292.746094 216 306 C 216 319.253906 226.746094 330 240 330 C 253.253906 330 264 319.253906 264 306 Z M 152.257812 153.167969 L 134.039062 121.621094 C 116.703125 134.785156 104.355469 153.457031 99.023438 174.5625 C 104.53125 180.894531 108 189.039062 108 198 C 108 206.953125 104.542969 215.085938 99.046875 221.414062 C 104.351562 242.542969 116.683594 261.238281 134.015625 274.429688 L 152.257812 242.859375 C 139.402344 231.492188 132.027344 215.164062 132 198.003906 C 132.035156 180.851562 139.40625 164.535156 152.257812 153.171875 Z M 96 198 C 96 184.746094 85.253906 174 72 174 C 58.746094 174 48 184.746094 48 198 C 48 211.253906 58.746094 222 72 222 C 85.253906 222 96 211.253906 96 198 Z M 96 198"/>
  </g>
  <mask id="mask2">
   <g filter="url(#alpha)">
    <rect width="384" height="384" x="0" y="0" style="fill:rgb(0%,0%,0%);fill-opacity:0.2"/>
   </g>
  </mask>
  <clipPath id="clip3">
   <rect width="384" height="384" x="0" y="0"/>
  </clipPath>
  <g id="surface11" clip-path="url(#clip3)">
   <path style="fill:rgb(100%,100%,100%)" d="M 191.988281 24 C 99.210938 24.007812 24 99.222656 24 192 C 24.027344 192.984375 24.0625 193.96875 24.105469 194.953125 C 25.765625 103.40625 100.425781 30.046875 191.988281 30 L 192 30 C 283.535156 30.074219 358.164062 103.410156 359.835938 194.929688 C 359.894531 193.953125 359.945312 192.976562 359.988281 192 C 359.988281 99.222656 284.777344 24.007812 192 24 Z M 191.988281 24"/>
  </g>
 </defs>
 <g>
  <use mask="url(#mask0)" xlink:href="#surface5"/>
  <path style="fill:rgb(96.078431%,43.137255%,17.254902%)" d="M 360 192 C 360 284.785156 284.785156 360 192 360 C 99.214844 360 24 284.785156 24 192 C 24 99.214844 99.214844 24 192 24 C 284.785156 24 360 99.214844 360 192 Z M 360 192"/>
  <use mask="url(#mask1)" xlink:href="#surface8"/>
  <path style="fill:rgb(100%,100%,100%)" d="M 287.160156 180 C 284.035156 155.507812 271.59375 133.164062 252.421875 117.609375 C 248.519531 119.070312 244.378906 120 240 120 C 224.902344 120 211.921875 110.464844 206.605469 97.171875 C 201.773438 96.410156 196.890625 96.019531 192 96 C 179.207031 96 166.542969 98.558594 154.753906 103.523438 L 173.011719 135.164062 C 179.125 133.09375 185.535156 132.023438 191.992188 131.996094 C 220.484375 132.023438 245.03125 152.082031 250.726562 179.996094 L 287.152344 179.996094 Z M 287.136719 204 L 250.785156 204 C 245.082031 231.933594 220.511719 251.996094 192.003906 252 C 185.546875 251.980469 179.136719 250.921875 173.019531 248.859375 L 154.808594 280.40625 C 166.574219 285.386719 179.21875 287.96875 191.996094 288.003906 C 196.90625 287.957031 201.804688 287.535156 206.648438 286.742188 C 211.976562 273.496094 224.9375 264.003906 239.996094 264.003906 C 244.390625 264.003906 248.558594 264.921875 252.464844 266.394531 C 271.609375 250.824219 284.023438 228.484375 287.132812 204.003906 Z M 264 84 C 264 70.746094 253.253906 60 240 60 C 226.746094 60 216 70.746094 216 84 C 216 97.253906 226.746094 108 240 108 C 253.253906 108 264 97.253906 264 84 Z M 264 300 C 264 286.746094 253.253906 276 240 276 C 226.746094 276 216 286.746094 216 300 C 216 313.253906 226.746094 324 240 324 C 253.253906 324 264 313.253906 264 300 Z M 152.257812 147.167969 L 134.039062 115.617188 C 116.703125 128.785156 104.355469 147.457031 99.023438 168.5625 C 104.53125 174.894531 108 183.039062 108 192 C 108 200.953125 104.542969 209.085938 99.046875 215.414062 C 104.351562 236.542969 116.683594 255.238281 134.015625 268.429688 L 152.257812 236.859375 C 139.402344 225.492188 132.027344 209.164062 132 192.003906 C 132.035156 174.851562 139.40625 158.535156 152.257812 147.171875 Z M 96 192 C 96 178.746094 85.253906 168 72 168 C 58.746094 168 48 178.746094 48 192 C 48 205.253906 58.746094 216 72 216 C 85.253906 216 96 205.253906 96 192 Z M 96 192"/>
  <use mask="url(#mask2)" xlink:href="#surface11"/>
 </g>
</svg>

<svg xmlns="http://www.w3.org/2000/svg" xmlns:xlink="http://www.w3.org/1999/xlink" width="384pt" height="384pt" version="1.1" viewBox="0 0 384 384">
 <defs>
  <filter id="alpha" width="100%" height="100%" x="0%" y="0%" filterUnits="objectBoundingBox">
   <feColorMatrix in="SourceGraphic" type="matrix" values="0 0 0 0 1 0 0 0 0 1 0 0 0 0 1 0 0 0 1 0"/>
  </filter>
  <mask id="mask1">
   <g filter="url(#alpha)">
    <rect style="fill:rgb(0%,0%,0%);fill-opacity:0.2" width="384" height="384" x="0" y="0"/>
   </g>
  </mask>
  <clipPath id="clip2">
   <rect width="384" height="384" x="0" y="0"/>
  </clipPath>
  <g id="surface8" clip-path="url(#clip2)">
   <path d="M 287.160156 186 C 284.03125 161.511719 271.589844 139.167969 252.421875 123.613281 C 248.519531 125.0625 244.378906 126 240 126 C 224.902344 126 211.921875 116.472656 206.605469 103.171875 C 201.773438 102.410156 196.890625 102.019531 192 102 C 179.207031 102 166.542969 104.558594 154.753906 109.523438 L 173.011719 141.164062 C 179.125 139.09375 185.535156 138.023438 191.992188 137.996094 C 220.484375 138.023438 245.03125 158.082031 250.726562 185.996094 L 287.152344 185.996094 Z M 287.136719 210 L 250.785156 210 C 245.082031 237.933594 220.511719 257.996094 192.003906 258 C 185.546875 257.980469 179.136719 256.921875 173.019531 254.859375 L 154.808594 286.40625 C 166.574219 291.386719 179.21875 293.96875 191.996094 294.003906 C 196.90625 293.957031 201.804688 293.535156 206.648438 292.742188 C 211.976562 279.496094 224.9375 270.003906 239.996094 270.003906 C 244.390625 270.003906 248.558594 270.921875 252.464844 272.394531 C 271.609375 256.824219 284.023438 234.484375 287.132812 210.003906 Z M 264 90 C 264 76.746094 253.253906 66 240 66 C 226.746094 66 216 76.746094 216 90 C 216 103.253906 226.746094 114 240 114 C 253.253906 114 264 103.253906 264 90 Z M 264 306 C 264 292.746094 253.253906 282 240 282 C 226.746094 282 216 292.746094 216 306 C 216 319.253906 226.746094 330 240 330 C 253.253906 330 264 319.253906 264 306 Z M 152.257812 153.167969 L 134.039062 121.621094 C 116.703125 134.785156 104.355469 153.457031 99.023438 174.5625 C 104.53125 180.894531 108 189.039062 108 198 C 108 206.953125 104.542969 215.085938 99.046875 221.414062 C 104.351562 242.542969 116.683594 261.238281 134.015625 274.429688 L 152.257812 242.859375 C 139.402344 231.492188 132.027344 215.164062 132 198.003906 C 132.035156 180.851562 139.40625 164.535156 152.257812 153.171875 Z M 96 198 C 96 184.746094 85.253906 174 72 174 C 58.746094 174 48 184.746094 48 198 C 48 211.253906 58.746094 222 72 222 C 85.253906 222 96 211.253906 96 198 Z M 96 198" style="fill:rgb(0%,0%,0%)"/>
  </g>
  <mask id="mask2">
   <g filter="url(#alpha)">
    <rect style="fill:rgb(0%,0%,0%);fill-opacity:0.2" width="384" height="384" x="0" y="0"/>
   </g>
  </mask>
  <clipPath id="clip3">
   <rect width="384" height="384" x="0" y="0"/>
  </clipPath>
  <g id="surface11" clip-path="url(#clip3)">
   <path d="M 191.988281 24 C 99.210938 24.007812 24 99.222656 24 192 C 24.027344 192.984375 24.0625 193.96875 24.105469 194.953125 C 25.765625 103.40625 100.425781 30.046875 191.988281 30 L 192 30 C 283.535156 30.074219 358.164062 103.410156 359.835938 194.929688 C 359.894531 193.953125 359.945312 192.976562 359.988281 192 C 359.988281 99.222656 284.777344 24.007812 192 24 Z M 191.988281 24" style="fill:rgb(100%,100%,100%)"/>
  </g>
 </defs>
 <g transform="matrix(1.0044643,0,0,1.0044643,-0.10714286,-1.6071429)">
  <g>
   <path style="fill:#de4a23" d="M 360,192 C 360,284.78516 284.78516,360 192,360 99.214844,360 24,284.78516 24,192 24,99.214844 99.214844,24 192,24 c 92.78516,0 168,75.214844 168,168 z m 0,0"/>
   <use width="100%" height="100%" x="0" y="0" mask="url(#mask1)" xlink:href="#surface8"/>
   <path style="fill:#ffffff" d="m 287.16016,180 c -3.125,-24.49219 -15.56641,-46.83594 -34.73829,-62.39062 C 248.51953,119.07031 244.37891,120 240,120 224.90234,120 211.92187,110.46484 206.60547,97.171875 201.77344,96.410156 196.89062,96.019531 192,96 c -12.79297,0 -25.45703,2.558594 -37.24609,7.52344 l 18.25781,31.64062 c 6.11328,-2.07031 12.52344,-3.14062 18.98047,-3.16797 28.49218,0.0273 53.03906,20.08594 58.73437,48 h 36.42578 z m -0.0234,24 h -36.35156 c -5.70313,27.93359 -30.27344,47.99609 -58.78125,48 -6.45704,-0.0195 -12.86719,-1.07813 -18.98438,-3.14063 l -18.21094,31.54688 c 11.76563,4.98047 24.41016,7.5625 37.1875,7.59766 4.91016,-0.0469 9.8086,-0.46875 14.65235,-1.26172 5.32812,-13.2461 18.28906,-22.73828 33.34765,-22.73828 4.39453,0 8.5625,0.91796 12.46875,2.39062 19.14453,-15.57031 31.5586,-37.91016 34.66797,-62.39062 z M 264,84 c 0,-13.253906 -10.74609,-24 -24,-24 -13.25391,0 -24,10.746094 -24,24 0,13.253906 10.74609,24 24,24 13.25391,0 24,-10.746094 24,-24 z m 0,216 c 0,-13.25391 -10.74609,-24 -24,-24 -13.25391,0 -24,10.74609 -24,24 0,13.25391 10.74609,24 24,24 13.25391,0 24,-10.74609 24,-24 z M 152.25781,147.16797 134.03906,115.61719 C 116.70313,128.78516 104.35547,147.45703 99.023438,168.5625 104.53125,174.89453 108,183.03906 108,192 c 0,8.95312 -3.45703,17.08594 -8.953125,23.41406 5.304685,21.12891 17.636715,39.82422 34.968745,53.01563 l 18.24219,-31.57032 C 139.40234,225.49219 132.02734,209.16406 132,192.00391 c 0.0352,-17.15235 7.40625,-33.46875 20.25781,-44.83204 z M 96,192 c 0,-13.25391 -10.746094,-24 -24,-24 -13.253906,0 -24,10.74609 -24,24 0,13.25391 10.746094,24 24,24 13.253906,0 24,-10.74609 24,-24 z m 0,0"/>
   <use width="100%" height="100%" x="0" y="0" mask="url(#mask2)" xlink:href="#surface11"/>
  </g>
  <path style="opacity:0.3" d="M 32.0625,251 C 32.026062,252.66306 32,254.3282 32,256 c 0,123.71357 100.28649,224 224,224 123.71356,0 224,-100.28644 224,-224 0,-1.6718 -0.0261,-3.33694 -0.0625,-5 C 477.27753,372.40329 378.04176,470 256,470 133.95828,470 34.722471,372.4033 32.0625,251 Z" transform="scale(0.75)"/>
 </g>
</svg>
